assets/img/desafio-tareas-svg.svg

<svg width="32" height="30" viewBox="0 0 32 30" fill="none" xmlns="http://www.w3.org/2000/svg">
<path d="M27.3597 15.2068C27.2307 15.2068 27.2307 15.2068 27.1016 15.0711C26.9726 14.9354 26.9726 14.7998 27.1016 14.6641L29.2956 12.7645C29.6827 12.3574 29.9409 11.9504 29.9409 11.272C29.9409 10.7292 29.8118 10.3222 29.4246 9.91513L27.6179 7.60849C27.4888 7.47281 27.4888 7.33713 27.6179 7.20144C27.6179 7.20144 27.7469 7.06576 27.876 7.06576C28.7794 7.20144 29.8118 6.93007 30.4571 6.25165C31.8767 5.03049 32.0057 2.72386 30.8442 1.23133C29.6827 -0.261192 27.4888 -0.396876 26.0692 0.824282C25.2949 1.5027 24.9077 2.45249 24.9077 3.40228C24.9077 3.53797 24.9077 3.53797 24.7786 3.67365C24.6496 3.80933 24.5205 3.80933 24.3915 3.67365L22.3266 1.09565C22.0685 0.824282 21.6813 0.688598 21.4232 0.688598C20.907 0.688598 20.3908 0.824282 20.0036 1.09565L12.0022 8.28691C11.744 8.55828 11.4859 8.82965 11.3569 9.2367C10.9697 9.2367 10.7116 9.50807 10.3244 9.64376L8.13049 11.5433C8.00144 11.679 7.87238 11.679 7.74332 11.5433C7.74332 11.5433 7.61427 11.4077 7.61427 11.272C7.74332 10.3222 7.48521 9.2367 6.83994 8.55828C5.67844 7.06576 3.4845 6.93007 2.06489 8.15123C0.645277 9.37239 0.516222 11.679 1.67772 13.1715C2.323 13.9857 3.22639 14.3927 4.12977 14.3927C4.25883 14.3927 4.25883 14.3927 4.38788 14.5284C4.51694 14.6641 4.51694 14.7998 4.38788 14.9354L2.19394 16.835C1.67772 17.6491 1.54866 18.8703 2.19394 19.8201L4.00072 22.1267C4.12977 22.2624 4.12977 22.3981 4.00072 22.5338C4.00072 22.5338 3.87166 22.6694 3.74261 22.6694C2.83922 22.5338 1.80678 22.8051 1.1615 23.4835C0.516222 24.162 0 24.9761 0 25.9259C0 26.8757 0.258111 27.8254 0.774332 28.5039C1.41961 29.1823 2.19394 29.725 3.09733 29.725C3.22639 29.725 3.22638 29.725 3.35544 29.725C4.12977 29.725 4.90411 29.4537 5.54938 28.9109C6.32372 28.2325 6.71088 27.2827 6.71088 26.3329C6.71088 26.1972 6.71088 26.1972 6.83994 26.0615C6.96899 25.9259 7.09805 25.9259 7.2271 26.0615L9.03388 28.3682C9.67916 29.1823 10.9697 29.318 11.744 28.6396L19.7455 21.4483C20.0036 21.1769 20.2617 20.9056 20.3908 20.4985C20.7779 20.4985 21.036 20.3628 21.4232 20.0914L23.6171 18.1919C23.7462 18.0562 23.8752 18.0562 24.0043 18.1919C24.0043 18.1919 24.1334 18.3275 24.1334 18.4632C24.0043 19.413 24.2624 20.4985 24.9077 21.1769C26.0692 22.6694 28.2631 22.8051 29.6827 21.584C31.1024 20.3628 31.2314 18.0562 30.0699 16.5637C29.1665 15.6139 28.2631 15.2068 27.3597 15.2068ZM18.584 19.8201L10.5825 27.0113C10.5825 27.0113 10.4535 27.0113 10.3244 27.0113L8.3886 24.7047C7.87238 24.162 7.2271 23.8906 6.58183 24.0263C6.19466 24.162 5.93655 24.2977 5.67844 24.4333C5.29127 24.8404 5.03316 25.3831 5.03316 25.9259C5.03316 26.4686 4.77505 26.8757 4.51694 27.2827C4.12977 27.5541 3.74261 27.6898 3.35544 27.6898C2.96827 27.6898 2.58111 27.4184 2.323 27.147C1.80678 26.74 1.67772 26.3329 1.67772 25.9259C1.67772 25.5188 1.93583 25.1118 2.19394 24.7047C2.58111 24.4333 2.96827 24.2977 3.35544 24.2977C3.4845 24.2977 3.61355 24.2977 3.74261 24.2977C4.25883 24.2977 4.77505 24.162 5.29127 23.7549C5.42033 23.6192 5.54938 23.3479 5.67844 22.9408C5.93655 22.2624 5.80749 21.4483 5.29127 20.7699L3.4845 18.4632C3.4845 18.4632 3.4845 18.3275 3.4845 18.1919L5.67844 16.1566C6.19466 15.6139 6.45277 14.9354 6.32371 14.1213C6.19466 13.7143 6.0656 13.4429 5.93655 13.1715C5.54938 12.7645 5.03316 12.4931 4.51694 12.3574C4.00072 12.3574 3.61355 12.0861 3.22639 11.8147C2.71016 11.1363 2.71016 10.0508 3.35544 9.37239C4.00072 8.82965 5.03316 8.82965 5.67844 9.50807C5.93655 9.91513 6.19466 10.4579 6.0656 11.0006C6.0656 11.5433 6.19466 12.0861 6.58183 12.6288C6.83994 12.9002 7.09805 13.1715 7.48521 13.3072C8.13049 13.5786 8.90482 13.4429 9.5501 12.9002L11.744 11.0006C11.744 11.0006 11.8731 11.0006 12.0022 11.0006L13.938 13.3072V13.4429C13.938 13.4429 13.938 13.5786 13.8089 13.5786C13.8089 13.5786 13.6799 13.7143 13.5508 13.7143C12.6474 13.5786 11.615 13.85 10.9697 14.5284C9.93727 15.4782 9.5501 16.9707 9.93727 18.3275C10.0663 18.7346 10.3244 19.1417 10.5825 19.5487C11.744 21.0412 13.938 21.1769 15.3576 19.9558C16.1319 19.2773 16.5191 18.3275 16.5191 17.3778C16.5191 17.2421 16.5191 17.2421 16.6481 17.1064C16.7772 16.9707 16.9063 16.9707 17.0353 17.1064L18.9711 19.413C18.713 19.6844 18.713 19.8201 18.584 19.8201ZM28.2631 19.9558C27.6179 20.4985 26.5854 20.4985 25.9401 19.8201C25.682 19.413 25.4239 18.8703 25.553 18.3275C25.553 17.7848 25.4239 17.2421 25.0367 16.6993C24.7786 16.428 24.5205 16.1566 24.1334 16.0209C23.8753 15.8852 23.6171 15.8852 23.4881 15.8852C22.9719 15.8852 22.5847 16.0209 22.1975 16.428L20.0036 18.3275C20.0036 18.3275 19.8745 18.3275 19.7455 18.3275L17.8096 16.0209C17.2934 15.4782 16.6481 15.2068 16.0029 15.3425C15.6157 15.4782 15.3576 15.6139 15.0995 15.7495C14.7123 16.1566 14.4542 16.6993 14.4542 17.2421C14.4542 17.7848 14.1961 18.1919 13.938 18.5989C13.2927 19.1417 12.2603 19.1417 11.615 18.4632C11.4859 18.3275 11.3569 18.0562 11.3569 17.9205C11.2278 17.2421 11.3569 16.5637 11.8731 16.1566C12.2603 15.8852 12.7765 15.6139 13.2927 15.7495C13.8089 15.7495 14.3251 15.6139 14.8414 15.2068C15.0995 14.9354 15.3576 14.6641 15.4866 14.257C15.4866 14.1213 15.6157 13.9857 15.6157 13.7143C15.6157 13.7143 15.6157 13.5786 15.6157 13.4429C15.6157 13.3072 15.6157 13.3072 15.6157 13.1715C15.6157 12.7645 15.4866 12.4931 15.0995 12.0861L13.2927 9.77944C13.2927 9.77944 13.2927 9.64376 13.2927 9.50807L21.1651 2.58818C21.2941 2.58818 21.2941 2.58818 21.4232 2.58818L23.359 4.89481C23.8752 5.43755 24.5205 5.70891 25.1658 5.57323C25.553 5.43755 25.8111 5.30186 26.0692 5.16618C26.4564 4.75912 26.7145 4.21639 26.7145 3.67365C26.7145 3.13091 26.9726 2.72386 27.2307 2.31681C27.6179 2.04544 28.005 1.90976 28.3922 1.90976C28.7794 1.90976 29.1665 2.18112 29.4246 2.45249C29.9409 3.13091 29.9409 4.21639 29.2956 4.89481C29.1665 5.16618 28.6503 5.30186 28.1341 5.30186C27.6179 5.30186 27.1016 5.43755 26.5854 5.8446C26.3273 5.98028 26.1982 6.25165 26.0692 6.6587C25.8111 7.33712 25.9401 8.15123 26.3273 8.69397L28.2631 11.0006V11.272L26.0692 13.3072C25.553 13.85 25.2949 14.5284 25.4239 15.2068C25.553 15.6139 25.682 15.8852 25.8111 16.1566C26.1982 16.5637 26.7145 16.835 27.2307 16.835C27.7469 16.835 28.1341 17.1064 28.5212 17.3778C29.0375 18.3275 29.0375 19.413 28.2631 19.9558Z" fill="#F79429"/>
</svg>

<svg width="32" height="30" fill="none" xmlns="http://www.w3.org/2000/svg"><path d="M27.36 15.207c-.13 0-.13 0-.258-.136-.13-.136-.13-.271 0-.407l2.194-1.9c.387-.407.645-.814.645-1.492 0-.543-.13-.95-.516-1.357l-1.807-2.307c-.13-.135-.13-.27 0-.407 0 0 .129-.135.258-.135.903.135 1.936-.136 2.581-.814 1.42-1.222 1.549-3.528.387-5.02C29.683-.262 27.49-.398 26.07.823a3.413 3.413 0 0 0-1.161 2.578c0 .136 0 .136-.13.272-.128.135-.258.135-.386 0l-2.065-2.578a1.36 1.36 0 0 0-.904-.407c-.516 0-1.032.135-1.42.407l-8 7.19c-.259.272-.517.544-.646.95-.387 0-.645.272-1.033.408l-2.194 1.9c-.129.135-.258.135-.387 0 0 0-.129-.136-.129-.272.13-.95-.129-2.035-.774-2.714-1.162-1.492-3.355-1.628-4.775-.407-1.42 1.221-1.549 3.528-.387 5.02.645.815 1.548 1.222 2.452 1.222.129 0 .129 0 .258.135.129.136.129.272 0 .407l-2.194 1.9c-.516.814-.645 2.035 0 2.985L4 22.127c.129.135.129.271 0 .407 0 0-.13.135-.258.135-.904-.135-1.936.136-2.581.814C.516 24.162 0 24.976 0 25.927s.258 1.9.774 2.578c.646.678 1.42 1.221 2.323 1.221h.258c.775 0 1.55-.271 2.194-.814a3.412 3.412 0 0 0 1.162-2.578c0-.136 0-.136.129-.271.129-.136.258-.136.387 0l1.807 2.306c.645.814 1.936.95 2.71.272l8.002-7.192c.258-.271.516-.542.645-.95.387 0 .645-.135 1.032-.407l2.194-1.9c.13-.135.258-.135.387 0 0 0 .13.137.13.272-.13.95.128 2.035.774 2.714 1.161 1.492 3.355 1.628 4.775.407 1.42-1.221 1.548-3.528.387-5.02-.904-.95-1.807-1.357-2.71-1.357Zm-8.776 4.613-8.002 7.191h-.258L8.39 24.705c-.517-.543-1.162-.814-1.807-.679-.387.136-.645.272-.904.407-.387.407-.645.95-.645 1.493 0 .543-.258.95-.516 1.357-.387.271-.774.407-1.162.407-.387 0-.774-.272-1.032-.543-.516-.407-.645-.814-.645-1.221 0-.407.258-.814.516-1.221.387-.272.774-.407 1.161-.407h.388a2.4 2.4 0 0 0 1.548-.543c.13-.136.258-.407.387-.814.259-.679.13-1.493-.387-2.171l-1.807-2.307v-.271l2.194-2.035c.517-.543.775-1.222.646-2.036-.13-.407-.258-.678-.387-.95a3.036 3.036 0 0 0-1.42-.814c-.516 0-.903-.27-1.29-.542-.517-.679-.517-1.764.128-2.443a1.709 1.709 0 0 1 2.323.136c.259.407.517.95.388 1.493 0 .542.129 1.085.516 1.628.258.271.516.543.903.678.645.272 1.42.136 2.065-.407l2.194-1.9h.258l1.936 2.307v.136s0 .136-.13.136c0 0-.128.135-.257.135-.904-.135-1.936.136-2.581.814-1.033.95-1.42 2.443-1.033 3.8.13.407.387.814.646 1.22 1.161 1.493 3.355 1.629 4.775.408a3.413 3.413 0 0 0 1.161-2.578c0-.136 0-.136.13-.272.128-.135.257-.135.386 0l1.936 2.307c-.258.271-.258.407-.387.407Zm9.68.136a1.709 1.709 0 0 1-2.324-.136c-.258-.407-.516-.95-.387-1.492 0-.543-.13-1.086-.516-1.629-.258-.271-.517-.542-.904-.678-.258-.136-.516-.136-.645-.136-.516 0-.903.136-1.29.543l-2.194 1.9h-.259L17.81 16.02c-.517-.543-1.162-.814-1.807-.679-.387.136-.645.272-.903.407-.388.408-.646.95-.646 1.493 0 .543-.258.95-.516 1.357a1.708 1.708 0 0 1-2.323-.136c-.13-.136-.258-.407-.258-.543-.13-.678 0-1.356.516-1.763.387-.272.904-.543 1.42-.408a2.4 2.4 0 0 0 1.548-.542c.259-.272.517-.543.646-.95 0-.136.129-.271.129-.543v-.542c0-.408-.13-.679-.516-1.086L13.293 9.78v-.27l7.872-6.92h.258l1.936 2.306c.516.543 1.161.814 1.807.678.387-.135.645-.271.903-.407.387-.407.646-.95.646-1.492 0-.543.258-.95.516-1.357.387-.272.774-.407 1.161-.407s.774.271 1.033.542c.516.679.516 1.764-.13 2.443-.129.271-.645.407-1.16.407a2.4 2.4 0 0 0-1.55.543c-.258.135-.387.407-.516.814a2.257 2.257 0 0 0 .258 2.035l1.936 2.307v.271l-2.194 2.035c-.516.543-.774 1.221-.645 1.9.129.407.258.678.387.95.387.407.904.678 1.42.678.516 0 .903.271 1.29.543.517.95.517 2.035-.258 2.578Z" fill="#F79429"/></svg>
